X: 7261
T: Clare Toast
R: reel
M: 4/4
K: Amajor
cB|:ABce f2ec|BAcB AFEc|c/c/B cA BFAE|FAEF AdcB|
ABce (ef)ec|BAcB AFEc|c/c/Bce feaf|gaef cAAB:|
|:AEFD D2Bc|c/c/B cA BFAE|FABc efae|f/g/a ef cAAB|
AEFA dcdf|e/f/g ae cAAe|faef ceBe|1 fecA cBBc:|2 fecA ABBc||

